X:1
T:Credo
T:Credo
T:G. P. da Palestrina
C:G. P. da Palestrina
%%score [ 1 2 3 4 ]
L:1/8
Q:1/4=120
M:4/4
K:F
V:1 treble nm="Soprano" snm="S"
V:2 treble nm="Alto" snm="A"
V:3 treble-8 nm="Tenor" snm="T"
V:4 bass nm="Bass" snm="B"
V:1
 c8 | A6 A2 | B2 c2 d4 | c2 c2 d2 e2 | f4 e2 c2 | d3 c B2 A2 | G4 A4 | z8 | z8 | z2 c4 c2 | %10
w: Pa-|trem o-|mni- po- ten-|tem, fa- cto- rem|coe- li et|ter- * * *|* rae,|||et in-|
 d2 c2 B2 (d2 | d)c c4 =B2 | (c8 | c8) | z2 c4 A2 | B2 c2 A3 A | G4 A2 F2 | B4 A2 (c2 | %18
w: vi- si- bi- *|* * * li-|um.|_|Et in|u- num Do- mi-|num Je- sum|Chri- stum, Fi-|
 c)c d2 e2 e2 | f3 e d2 (c2 | c2) =BA B2 B2 | c2 A4 A2 | F2 G2 A4 | A4 z2 (d2 | d2) c2 (f4 | %25
w: * li- um De- i|u- ni- ge- *|* * * * ni-|tum.- Et ex|Pa- tre na-|tum an-|* te om-|
 f2) e2 d2 d2 | c4 z2 d2 | e2 e2 f4 | e8 | z4 (c4 | c2) c2 d4 | c6 B2 | A2 F2 G4 | G8 | z8 | z8 | %36
w: ni- a sae- cu-|la. De-|um de De-|o.|De-|* um ve-|rum de|De- o ve-|ro.|||
 z8 | z4 z2 (c2 | c2) B2 c3 B | A2 G3 F (F2 | F2) E2 F4 | z4 A4 | A2 B2 c4 | A2 A2 G4 | %44
w: |Per|_ quem om- ni-|a fa- * *|* cta sunt.|Qui|pro- pter nos|ho- mi- nes,|
 z2 c2 c2 d2 | e4 e2 e2 | f4 (e4 | d4) z2 c2 | c4 F2 A2 | B8 | A4 z4 || A4 A2 A2 | A4 c4 | %53
w: et pro- pter|no- stram sa-|lu- tem|_ de-|scen- dit de|coe-|lis.|Et in- car-|na- tus|
 c4 z2 c2 | c4 c2 c2 | d4 c4 | c3 c B2 A2 | G2 F2 G4 | G4 G4 | G4 (A4 | A4) G4 | G8 || c6 c2 | %63
w: est de|Spr- ri- tu|San- cto|ex Ma- ti- a|Vir- gi- ne:|Et ho-|mo fac|* ctus|est.|Cru- ci-|
 B4 A4 | A2 A2 A2 A2 | d4 c4 | z8 | z4 f4 | e4 d3 d | d2 c4 =B2 | c4 z2 G2 | B3 c d4 | c8 | z8 | %74
w: fix- us|e- ti- am pro|no- bis-||pas-|sus, et se-|pul- * tus|est. Et|re- sur- re-|xit.||
 z8 | z4 c4 | d2 e2 c2 d2 | e4 d2 d2 | d2 d2 f3 e | d2 c3 B A2 | G2 G2 A3 A | A2 A2 A2 A2 | B4 G4 | %83
w: |Et|a- scen- dit in|coe- lum, se-|det ad dex- te-|ram Pa- * *|tris. Et i- te-|rum ven- tu- rus|est cum|
 A3 A A2 A2 | A4 B4 | A2 c2 c2 B2 | A2 A2 G4 | z2 G4 G2 | G4 G2 G2 | A4 A2 (c2 | c2) =BA B4 | c8 | %92
w: glo- ri- a ju-|di- ca-|re vi- vos,- et|mor- tu- os:|cu- jus|re- gni non|e- rit fi-||nis.|
 z2 c4 c2 | A2 A2 F4 | B4 G4 | c6 A2 | A4 z4 | z8 | c6 c2 | c2 A2 B3 B | A2 d4 c2 | B4 A4 | %102
w: Et in|Spi- ri- tum|San- ctum|Do- mi-|num,||Qui ex|Pa- tre Fi- li-|o- que- pro-|ce- dit.|
 z2 f4 e2 | d4 c2 B2 | A2 G2 A2 (c2 | c2) A2 B2 c2 | d4 c2 c2 | c2 A2 B2 c2 | d4 c4 | A3 A A2 A2 | %110
w: Qui cum|Pa- tre, et|Fi- li- o si-|* mul ad- o-|ra- tur, et|con- glo- ri- fi-|ca- tur:|qui lo- cu- tus|
 G4 A2 (c2 | c2) B4 A2 | B8 | z8 | z4 f4 | e2 c2 d3 d | c2 B2 A2 A2 | G4 z4 | z8 | z2 d4 c2 | %120
w: est per Pro-|* phe- *|tas.||Et|a- po- sto- li-|cam Ec- cle- si-|am.||in re-|
 A2 B2 c2 B2 | G2 A2 B4 | A4 z2 A2 | B4 c4 | c2 c4 c2 | d2 d2 d4 | c2 c2 B2 (A2 | A2) G2 (A4 | %128
w: mis- si- o- nem|pec- ca- to-|rum. Et|ex- spe-|cto re- sur-|re- cti- o-|nem mor- tu- o-|* * rum.|
 A4) z2 A2 | B4 A2 (c2 | c2) B2 G2 (A2 | A2) GF A2 G2 | G4 z4 | z4 z2 (c2 | c)A B2 c2 A2 | %135
w: _ Et|vi- tam ven-|* tur- ri sae-|* * * * cu-|li.|A-||
 G2 A2 B3 c | de f3 d e2 | f2 e2 c2 d2 | e2 d3 B c2 | d2 c3 A B2 | c2 B2 G2 A2 | B2 A3 F G2 | %142
w: men, a- * *|||men, a- * *|men, a- * *||men, a- * *|
 A2 G3 F (F2 | F2) ED E4 | F8 |] %145
w: ||men.|
V:2
 z4 (F4 | F4) (D4 | D2) E2 F2 G2 | A4 G2 G2 | A2 B2 c4 | B3 A G2 (F2 | F2) E2 F2 (A2 | A2) A2 B4 | %8
w: Pa-|* trem|* om- ni- po-|ten- tem, fa-|cto- rem coe-|li _ _ et|* ter- rae, vi-|* si- bi-|
 G2 A2 F2 F2 | E2 A4 A2 | D2 A2 D4 | A4 G3 F | E3 D C4 | z8 | z8 | z8 | z4 z2 (D2 | D)D E2 (F4 | %18
w: li- um om- ni-|um, et in-|vi- si- bi-|li- um, _|_ _ _||||Fi-|* li- um De-|
 F4) E2 (A2 | A)G F4 E2 | D4 G4 | E4 F3 E | D2 G,2 C4 | A,4 z4 | z8 | z8 | z4 G4 | G2 G2 A4 | %28
w: * i u-|* ni- ge- ni-|tum. Et|ex Pa- *|* tre na-|tum|||De-|um de De-|
 G4 z4 | z4 z2 (A2 | A2) A2 B4 | A6 F2 | F2 C2 D4 | E8 | G3 E F2 G2 | A2 G2 B2 A2 | G3 F E2 C2 | %37
w: o.|De-|* um ve-|rum de|De- o ve-|ro.|Ge- ni- tum, non|fa- ctum, con- sub-|stan- ti- a- lem|
 D4 E4 | F2 G2 A3 G | F2 C4 D2 | C4 z2 C2 | D2 E2 F4 | D2 D2 C4 | z4 z2 G2 | G2 G2 A4 | G2 G2 G4 | %46
w: Pa- tri:|Per quem om- ni-|a fa- cta|sunt. Qui|pro- pter nos|ho- mi- nes,|et|pro- pter no-|stram sa- lu-|
 A4 z2 G2 | G4 (C4 | C2) C2 D2 E2 | F8 | F4 z4 || F4 F2 F2 | F4 G4 | A2 A2 A4 | G2 G2 A4 | F4 (A4 | %56
w: tem de-|scen- dit|* de coe- *||lis.|Et in- car-|na- tus|est de Spi-|ri- tu San-|cto ex|
 A2) G2 F2 E2 | D2 C2 D4 | E4 D4 | E4 (F4 | F2) E2 D4 | E8 || G4 A4 | G4 E4 | F2 F2 E2 F2 | G4 A4 | %66
w: _ Ma- ri- a|Vir- gi- ne:|Et ho-|mo fac|* * ctus|est.|Cru- ci-|fix- us|e- ti- am pro|no- bis|
 z8 | B4 A4 | G3 G G2 D2 | F3 E D4 | C8 | z8 | z8 | z8 | z2 F2 G2 A2 | F2 G2 A4 | G4 z2 G2 | %77
w: |pas- sus,|et se- pul- tus|est. _ _|_||||Et a- scen-|dit in coe-|lum,- se-|
 G2 G2 B3 A | G2 FE D2 (F2 | F)G A3 G (F2 | F2) E2 F2 C2 | F3 F F2 F2 | D2 D2 E4 | z2 C2 F3 F | %84
w: det ad dex- te-|ram _ _ _ Pa-||* * tris. Et|i- te- rum ven-|tu- rus est|cum glo- ri-|
 F2 F2 D2 E2 | F2 A2 A2 G2 | F2 F2 E4 | D4 E4 | D4 E2 E2 | F2 F2 (E2 F2) | G8 | z2 G4 G2 | %92
w: a ju- di- ca-|re vi- vos, et|mor- tu- os:|cu- jus|re- gni non|e- rit fi- *|nis.|Et in|
 E2 E2 C4 | F4 D4 | G6 E2 | E8 | z2 A2 G2 E2 | A4 G4 | F2 A4 A2 | A2 F2 G4 | C2 D2 B,2 C2 | %101
w: Spi- ri- tum|San- ctum|Do- mi-|num,|et vi- vi-|fi- can-|tem: Qui ex|Pa- tre Fi-|li- o- que pro-|
 (D2 E2) F4 | z2 A4 A2 | A4 G2 F2 | E2 D2 E4 | F3 E D2 C2 | (F2 G2) A4 | z2 F2 F2 E2 | %108
w: ce- * dit.|Qui cum|Pa- tre, et|Fi- li- o|si- mul ad- o-|ra- * tur,|et con- glo-|
 F2 G2 A2 A2 | F3 F F2 F2 | E4 (F4 | F2) F2 F4 | D8 | z8 | z2 G2 F2 D2 | E3 E F2 G2 | A2 G4 ^F2 | %117
w: ri- fi- ca- tur:|qui lo- cu- tus|est per|_ Pro- phe-|tas.||Et a- po-|sto- li- cam Ec-|cle- * si-|
 G4 z4 | z8 | z8 | z8 | z4 z2 (G2 | G2) ^FE F4 | G4 A4 | G2 A4 A2 | A2 A2 B4 | A2 A2 G2 (F2 | %127
w: am.||||Et|_ _ _ _|ex- spe-|cto- re- sur-|re- cti- o-|nem mor- tu- o-|
 F2) ED C2 E2 | F4 E2 F2 | G4 C4 | G6 FE | F2 F2 E4 | z2 E3 F D2 | E2 C2 D2 (A2 | A2) GF E2 F2 | %135
w: * * * rum. Et|vi- tam ven-|tu- ri|sae- * *|* cu li.|A- * *|* * men, a-||
 G2 F2 z2 (B2 | B)G A2 B2 G2 | F2 G2 A2 (G2 | G)E F2 G2 F2 | D2 A4 GF | E2 G4 FE | D2 F4 ED | %142
w: * men, a-||* * men, a-||men, a- * *||* men, _ _|
 C2 D4 B,2 | C8 | C8 |] %145
w: _ a- *||men.-|
V:3
 z8 | z8 | z8 | z8 | z8 | z8 | c6 c2 | d2 c2 B2 (d2 | d)c c4 =B2 | c4 (f4 | f2) f2 (g3 f | %11
w: ||||||Vi- si-|bi- li- um om-|* * * ni-|um, et|* in- vi- *|
 e2) f2 d2 d2 | c2 g4 e2 | f2 g2 e3 e | d2 e4 f2 | gf ed c2 (f2 | f2) e2 f4 | z4 z2 (A2 | %18
w: * si- bi- li-|um. Et in|u- num Do- mi-|num Je- sum|Chri- * * * * *|* * stum.|Fi-|
 A)A B2 c2 c2 | d3 c B2 c2 | G4 z4 | z4 z2 (d2 | d2) d2 e4 | c4 f4 | e4 z2 (d2 | d2) c2 (f4 | %26
w: * li- um De- i|u- ni- ge- ni-|tum.|Et|* ex Pa-|tre na-|tum an-|* te om-|
 f2) e2 d2 d2 | c4 z4 | c4 c2 c2 | d2 d2 e2 (f2 | f2) f2 f4 | f2 f2 e2 (d2 | d)c c4 =B2 | c4 c3 c | %34
w: ni- a sae- cu-|la.|Lu- men de|lu- mi- ne. De-|* um ve-|rum de De- o|_ _ _ ve-|ro. Ge- ni-|
 B2 c2 d2 c2 | f2 e2 d3 c | B2 G2 A4 | G4 z4 | z4 z2 (c2 | c2) c2 A2 B2 | G2 G2 F2 A2 | B2 c2 d4 | %42
w: tum, non fa- ctum,|con- sub- stan- ti-|a- lem Pa-|tri:|Per|quem om- ni- a|fa- cta sunt. Qui|pro- pter nos|
 z4 z2 c2 | c2 d2 e4 | e2 e2 f4 | c4 z4 | z2 c2 c4 | G2 d2 e4 | f6 e2 | d8 | c4 z4 || c4 c2 c2 | %52
w: et|pro- pter nos-|tram, sa- lu-|tem|de- scen-|dit de coe-|||lis.|Et in- car-|
 d4 e4 | f2 c2 f4 | e2 e2 f4 | d4 (f4 | f2) e2 d2 c2 | B2 A2 G4 | z2 (c3 =B/A/ B2) | c4 A2 (d2 | %60
w: na- tus|est de Spi-|ri- tu San-|cto ex|_ Ma- ri- a|Vir- gi- ne:|Et * * *|ho- mo fa-|
 d2) c4 =B2 | c8 || e4 f4 | d4 c4 | c2 c2 c2 c2 | d4 e2 e2 | f2 d2 e2 (f2 | f)e/d/ e2 f4 | c4 z4 | %69
w: * * ctus|est.|Cru- ci-|fix- us|e- ti- am pro|no- bis sub|Pon- ti- o Pi-|* * * * la-|to.|
 z8 | z2 c2 e3 f | g4 d4 | f4 e2 c2 | e4 d2 g2 | f2 d3 e (f2 | f2) e2 f4 | z8 | z8 | z8 | z4 F4 | %80
w: |Et re- sur-|re- xit|ter- ti- a|di- e se-|cun- dum Scrip- tu-|* * ras.-||||Et|
 c3 c c2 c2 | A2 A2 d4 | z2 G2 c3 c | c2 c2 A4 | (d4 B4) | c2 F2 F2 G2 | A2 F2 (c4 | G4) z2 (c2 | %88
w: i- te- rum ven-|tu- rus est|cum glo- ri-|a ju- ci-|ca- *|re vi- vos, et|mor- tu- os:|_ cu-|
 c2) =B2 c4 | c2 A2 c2 c2 | d8 | c8 | z8 | z8 | z8 | z4 z2 (c2 | c2) d2 e4 | c2 f4 e2 | f4 f3 f | %99
w: * jus re-|gni non e- rit|fi-|nis.||||Et|_ vi- vi-|fi- can- *|tem: Qui ex|
 e2 c2 d2 e2 | f4 f2 f2 | g4 c4 | z2 d4 c2 | f4 e2 d2 | c2 B2 A4 | z4 z2 f2 | f2 d2 e2 e2 | %107
w: Pa- tre Fi- li-|o- que pro-|ce- dit.|Qui cum|Pa- tre, et|Fi- li- o|et|con- glo- ri- fi-|
 f3 e d2 c2 | B4 A2 (c2 | c2) c2 c2 c2 | c6 A2 | d4 c4 | B4 z2 d2 | c2 d2 B4 | A2 G2 A2 B2 | %115
w: ca- * * *|* tur: qui|_ lo- cu- tus|est per|Pro- phe-|tas. Et|u- nam san-|ctam, ca- tho- li-|
 c4 z4 | z8 | z2 G2 d2 d2 | c2 d2 e3 f | g4 d2 (f2 | f2) e2 c2 d2 | e2 c2 d2 d2 | d4 A2 (d2 | %123
w: cam.||Con- fi- te-|or u- num bap-|tis- ma in|* re- mis- si-|o- nem pec- ca-|to rum.- Et|
 d2) d2 f4 | e2 f4 f2 | f2 f2 f4 | f4 d2 c2 | d4 e2 A2 | d4 c2 c2 | d2 e2 f3 e | dc d3 c (c2 | %131
w: * ex- spec-|to re- sur-|re- cti- o-|nem mor- tu-|o- rum. Et|vi- tam ven-|tu- ri sae- *||
 c2) =B2 (c4 | c4) z2 (g2 | g)e f2 g2 e2 | f2 d2 c2 d2 | e2 f3 d e2 | f4 B2 c2 | d2 c2 z4 | %138
w: * cu- li.|_ A-||men, a- * *|men, a- * *|men, a- *|* men,|
 z4 z2 (f2 | f)d e2 f2 d2 | c2 d2 e2 (d2 | d)B c2 d2 c2 | A2 B3 A F2 | G8 | A8 |] %145
w: a-|* * * men, a-|* * men, a-||men, a- * *||men.|
V:4
 z8 | z8 | z8 | z8 | z8 | z8 | z4 (F,4 | F,2) F,2 G,4 | E,2 F,2 D,2 D,2 | C,2 F,4 F,2 | %10
w: ||||||Vi-|* si- bi-|li- um om- ni-|um, et in-|
 B,2 A,2 G,4 | A,2 F,2 G,4 | C,8 | z2 C4 A,2 | B,2 C2 A,3 A, | G,2 A,4 F,2 | C3 B, A,2 B,2 | %17
w: vi- si- bi-|* * li-|um.|Et in|u- num Do- mi-|num Je- sum|Chri- * * *|
 G,4 F,4 | z8 | z8 | z2 G,4 G,2 | A,4 F,4 | B,4 A,4 | z2 A,4 F,2 | G,2 A,2 D,3 E, | %25
w: * stum.|||Et ex|Pa- tre|na- tum|an- te|om- ni- a _|
 F,G, A,2 D,E, F,G, | A,B, C4 =B,2 | (C4 F,4) | z2 C2 A,2 A,2 | B,2 B,2 A,2 (F,2 | F,2) F,2 B,4 | %31
w: _ _ _ sae- * * *|* * * cu-|la. _|Lu- men de|lu- mi- ne. De-|* um ve-|
 F,3 G, A,2 B,2 | F,2 A,2 G,4 | C,8 | z8 | z8 | z4 z2 (C2 | C2) B,2 C3 B, | A,2 G,3 F, (F,2 | %39
w: rum _ _ de|De- o ve-|ro.|||Per|_ quem om- ni-|a fa- * *|
 F,2) E,2 F,2 B,,2 | (C,4 F,4) | z4 z2 D,2 | F,2 G,2 A,4 | F,2 F,2 C4 | C4 z4 | z2 C2 C4 | %46
w: * * * cta|sunt. _|Qui-|pro- pter nos-|tram, sa- lu-|tem|de- scen-|
 F,4 C,2 (C2 | C2) B,2 A,3 G, | F,3 E, D,2 C,2 | B,,8 | F,4 z4 || F,4 F,2 F,2 | D,4 C,4 | %53
w: dit de coe-||||lis.-|Et in- car-|na- tus|
 F,4 z2 F,2 | C4 F,2 F,2 | B,4 F,4 | z8 | z2 (C3 =B,/A,/ B,2) | C4 G,4 | z4 (F,4 | F,4) G,4 | %61
w: est de|Spr- ri- tu|San- cto||Et * * *|ho- mo|fa-|* ctus|
 C,8 || C,4 F,4 | G,4 A,4 | F,3 G, A,2 A,2 | B,4 A,2 A,2 | A,2 B,2 C2 A,2 | G,4 F,4 | z8 | %69
w: est.|Cru- ci-|fix- us|e- ti- am pro|no- bis sub|Pon- ti- o Pi-|la- to.||
 z4 z2 G,2 | A,3 B, C4 | G,4 B,4 | A,2 F,2 A,4 | G,2 C2 B,2 G,2 | A,2 B,4 A,2 | B,2 G,2 F,2 A,2 | %76
w: Et|re- sur- re-|xit ter-|ti- a di-|e se- cun- dum|Scrip- tu- *|* * ras. Et|
 B,2 C2 A,2 B,2 | C4 G,4 | z8 | z8 | C,4 F,3 F, | F,2 F,2 D,2 D,2 | G,4 z2 C,2 | F,3 F, F,2 F,2 | %84
w: a- scen- dit in|coe lum.|||Et i- te-|rum ven- tu- rus|est cum|glo- ri- a ju-|
 D,4 G,4 | F,4 z4 | z4 z2 (C2 | C2) =B,2 C4 | G,4 C,4 | F,4 A,4 | G,8 | C,4 z2 (C2 | %92
w: di- ca-|re|cu-|* jus re-|gni non|e- rit|fi-|nis. Et|
 C2) C2 A,2 A,2 | F,4 B,4 | G,4 (C4 | C2) A,2 A,4 | F,4 G,2 (A,2 | A,2) F,2 C4 | F,2 F,4 F,2 | %99
w: _ in Spi- ri-|tum San-|ctum Do-|* mi- num,|et vi- vi-|* fi can-|tem: Qui ex|
 A,2 A,2 G,3 G, | F,2 B,4 A,2 | G,4 F,2 (F,2 | F,2) D,2 A,4 | D,4 z4 | z4 z2 (A,2 | %105
w: Pa- tre Fi- li-|o- que pro-|ce- dit. Qui|_ cum Pa-|tre|si-|
 A,2) F,2 G,2 A,2 | B,4 A,4 | z8 | z4 (F,4 | F,2) F,2 F,2 F,2 | C,4 (F,3 E, | D,2) B,,2 F,4 | %112
w: * mul ad- o-|ra- tur,||qui|_ lo- cu- tus|est per *|* Pro- phe-|
 B,,4 B,4 | A,2 F,2 G,4 | F,2 E,2 D,2 D,2 | C,4 z4 | z4 D,4 | G,2 G,2 F,2 G,2 | A,2 B,2 C4 | %119
w: tas. Et|u- nam san-|ctam, ca- tho- li-|cam.|Con-|fi- te- or u-|num bap- tis-|
 G,2 B,4 A,2 | F,2 G,2 A,2 B,2 | C2 A,2 G,4 | D,4 D,4 | G,4 F,4 | C,2 F,4 F,2 | D,2 D,2 B,,4 | %126
w: ma in re-|mis- si- o- nem|pec- ca- to-|rum. Et|ex- spe-|cto re- sur-|re- cti- o-|
 F,4 G,2 A,2 | B,4 A,4 | z2 D,2 A,4 | G,4 F,4 | G,3 F, E,2 F,2 | D,2 D,2 C,4 | z2 C3 A, B,2 | %133
w: nem mor- tu-|o- rum.|Et vi-|tam ven-|tu- * * ri|sae- cu- li.|A- * *|
 C2 A,2 G,2 A,2 | F,2 G,2 A,2 F,2 | E,2 D,2 G,4 | F,4 z4 | z2 C3 A, B,2 | C2 B,3 G, A,2 | %139
w: * * men, a-|||men,|a- * *|men, a- * *|
 B,2 A,3 F, G,2 | A,2 G,3 E, F,2 | G,2 F,2 D,2 E,2 | F,2 B,,2 D,4 | C,8 | F,8 |] %145
w: men, a- * *|men, a- * *|men, a- * *|||men.|

